X:158
T:Barry's Delight
M:2/4
L:1/8
B:Thompson's Compleat Collection of 200 Favourite Country Dances, vol. 1 (London, 1757)
Z:Transcribed and edited by Flynn Titford-Mock, 2007
Z:abc's:AK/Fiddler's Companion
K:D
D2 (3FGA|BGAF|D2 (3FGA|BGEd|D2 (3FGA|BGAg|fdec|dAFA:|
|:{g}fedf|gfeg|eAgA|fAaA|{g}fedf|gfeg|fdec|dAFA:|

